X: 34480
T: Ridée Six Temps
R: three-two
M: 3/2
K: Bminor
|:BffB ffef gfed|cBcd efed cedc:|
B2 fB cd|B2 gB cd|B2 AB cd|ed cd dc|
B2 fB cd|B2 gB cd|B2 AB cd|ed cd dB||
|:BffB f2 ef gfed|cBcd ef e2 cedc:|
B2 fB cd|B2 gB cd|B2 AB cd|ed ce dc|
cB fB cd|B2 gB cd|B2 AB cd|ed ce dc||

